X:9
T:Miss Grace Menzies
B:William Marshall Volume 2nd Of A Collection Of Scottish Melodies (1845)
C:William Marshall
L:1/8
M:C|
O:Scotland
R:Strathspey
Z:Clark Bernst + Richard Robinson
%%Page:4 - 1
F:http://richardrobinson.tunebook.org.uk/tune/4089
%%TBL:{"version":1,"type":"tune","id":"4089"}
K:F
%%staves {1 2}
V:1
f | \
c/F3/ c3/A/ c/F3/ c3/A/ | c/F3/ c3/A/ {AB}c2 ce | \
f/a3/ d3/f/ c/f3/ A/f3/ | GG B3/c/ {Bc}d2 d3/f/ & E2 F2 F2 F2 |
c/F3/ c3/A/ c/F3/ c3/A/ | c/F3/ c3/A/ {AB}c2 ce | \
f/a3/ d3/f/ c/f3/ A/f3/ | GG B3/c/ {Bc}d2 d & E2 F2 F2 F |]
f | \
c/f3/ Af    c/f3/ A/f3/ | c/f3/ A/B3/ {AB}c2 (cf) | \
c/f3/ A/f3/ c/f3/ a3/g/ | f/d3/ c3/A/ AGG3/f/ |
c/f3/ A/f3/ c/f3/ A/f3/ | c/f3/ A/B3/ {AB}c2 (ce) | \
f/a3/ d3/f/ c/f3/ A/f3/ | GG B3/c/ {Bc}d2 d & E2 F2 F2 F|]
V:2 middle=d clef=bass
L:1/4
z/ | \
[Ff] [Ff] [Ff] [Ff] | [Ff] [Ff] [Ff] [Bb] | \
[Aa] [Bb] [Aa] [Ff] | c' d'/c'/ b b  & C, F, F,B,, | \
[Ff] [Ff] [Ff] [Ff] | [Ff] [Ff] [Ff] [Bb] | \
[Aa] [Bb] [Aa] [Ff] | c' d'/c'/ b b/  & C, F, F,B,,/ |] \
z/ | \
[fac'] [fac'] [fac'] [fac'] | [fac'] [fac'] [fac'] [fac'] | \
[fac'] [fac'] [fa]  [fc']  | d'/b/a c'c'/z/ & F, F, C, C,/z/ | \
[fac'] [fac'] [fac'] [fac'] | [fac'] [fac'] [fac'] [Bb] | \
[Aa] [Bb] [Aa] [Ff] | c' d'3//c'// b b/  & C, F, F,B,,/|]

